_src/assets/img/devices/iphonex.svg

<svg fill="none" viewBox="0 0 189 334" xmlns="http://www.w3.org/2000/svg" xmlns:xlink="http://www.w3.org/1999/xlink"><filter id="a" color-interpolation-filters="sRGB" filterUnits="userSpaceOnUse" height="289" width="143" x="22" y="15"><feFlood flood-opacity="0" result="BackgroundImageFix"/><feBlend in="SourceGraphic" in2="BackgroundImageFix" result="shape"/><feColorMatrix in="SourceAlpha" result="hardAlpha" values="0 0 0 0 0 0 0 0 0 0 0 0 0 0 0 0 0 0 127 0"/><feOffset dy="-3"/><feGaussianBlur stdDeviation="6"/><feComposite in2="hardAlpha" k2="-1" k3="1" operator="arithmetic"/><feColorMatrix values="0 0 0 0 0.464366 0 0 0 0 0.519284 0 0 0 0 0.587931 0 0 0 0.28626 0"/><feBlend in2="shape" result="effect1_innerShadow"/></filter><filter id="b" color-interpolation-filters="sRGB" filterUnits="userSpaceOnUse" height="343.226" width="187" x="0" y="-8"><feFlood flood-opacity="0" result="BackgroundImageFix"/><feColorMatrix in="SourceAlpha" values="0 0 0 0 0 0 0 0 0 0 0 0 0 0 0 0 0 0 127 0"/><feOffset dy="-4"/><feGaussianBlur stdDeviation="11"/><feColorMatrix values="0 0 0 0 0 0 0 0 0 0 0 0 0 0 0 0 0 0 0.03 0"/><feBlend in2="BackgroundImageFix" result="effect1_dropShadow"/><feBlend in="SourceGraphic" in2="effect1_dropShadow" result="shape"/></filter><filter id="c" color-interpolation-filters="sRGB" filterUnits="userSpaceOnUse" height="14.775" width="131.936" x="16.191" y="297.113"><feFlood flood-opacity="0" result="BackgroundImageFix"/><feBlend in="SourceGraphic" in2="BackgroundImageFix" result="shape"/><feGaussianBlur result="effect1_foregroundBlur" stdDeviation="3.398"/></filter><filter id="d" color-interpolation-filters="sRGB" filterUnits="userSpaceOnUse" height="14.775" width="131.936" x="36.901" y="297.113"><feFlood flood-opacity="0" result="BackgroundImageFix"/><feBlend in="SourceGraphic" in2="BackgroundImageFix" result="shape"/><feGaussianBlur result="effect1_foregroundBlur" stdDeviation="3.398"/></filter><filter id="e" color-interpolation-filters="sRGB" filterUnits="userSpaceOnUse" height="67.542" width="149.978" x="17.525" y="265.994"><feFlood flood-opacity="0" result="BackgroundImageFix"/><feBlend in="SourceGraphic" in2="BackgroundImageFix" result="shape"/><feGaussianBlur result="effect1_foregroundBlur" stdDeviation="8.155"/></filter><filter id="f" color-interpolation-filters="sRGB" filterUnits="userSpaceOnUse" height="16.549" width="131.936" x="27.039" y="293.26"><feFlood flood-opacity="0" result="BackgroundImageFix"/><feBlend in="SourceGraphic" in2="BackgroundImageFix" result="shape"/><feGaussianBlur result="effect1_foregroundBlur" stdDeviation="3.398"/></filter><filter id="g" color-interpolation-filters="sRGB" filterUnits="userSpaceOnUse" height="2.3" width="17.17" x="85.117" y="27.862"><feFlood flood-opacity="0" result="BackgroundImageFix"/><feBlend in="SourceGraphic" in2="BackgroundImageFix" result="shape"/><feColorMatrix in="SourceAlpha" result="hardAlpha" values="0 0 0 0 0 0 0 0 0 0 0 0 0 0 0 0 0 0 127 0"/><feOffset/><feGaussianBlur stdDeviation=".5"/><feComposite in2="hardAlpha" k2="-1" k3="1" operator="arithmetic"/><feColorMatrix values="0 0 0 0 0.464366 0 0 0 0 0.519284 0 0 0 0 0.587931 0 0 0 0.28626 0"/><feBlend in2="shape" result="effect1_innerShadow"/></filter><linearGradient id="h" gradientUnits="userSpaceOnUse" x1="115.655" x2="0" y1=".034" y2=".034"><stop offset="0" stop-opacity=".01"/><stop offset=".142"/><stop offset=".491"/><stop offset=".853"/><stop offset="1" stop-opacity=".01"/></linearGradient><linearGradient id="i"><stop offset="0" stop-color="#fff" stop-opacity=".01"/><stop offset=".853"/><stop offset="1" stop-opacity=".01"/></linearGradient><linearGradient id="j" gradientUnits="userSpaceOnUse" x1="138.641" x2="22.986" xlink:href="#i" y1="303.922" y2="303.922"/><linearGradient id="k" gradientUnits="userSpaceOnUse" x1="115.655" x2="0" xlink:href="#i" y1=".013" y2=".013"/><linearGradient id="l" gradientUnits="userSpaceOnUse" x1="-2.137" x2="90.227" y1="43.25" y2="300.721"><stop offset="0" stop-color="#f4f7fa"/><stop offset="1" stop-color="#eceef1"/></linearGradient><mask id="m" height="334" maskUnits="userSpaceOnUse" width="189" x="0" y="0"><path clip-rule="evenodd" d="m189 0h-189v334h189zm-130.826 29.343v-3.343h-13.975c-7.29 0-13.199 5.872-13.199 13.114v243.772c0 7.243 5.91 13.114 13.199 13.114h98.601c7.29 0 13.199-5.871 13.199-13.114v-243.772c.001-7.242-5.908-13.114-13.198-13.114h-14.751v3.343c0 3.55-2.897 6.428-6.47 6.428h-56.936c-3.573 0-6.47-2.878-6.47-6.428z" fill="#fff" fill-rule="evenodd"/></mask><g filter="url(#b)" mask="url(#m)"><g filter="url(#f)" opacity=".8"><path d="m0 0h118.345v2.959h-118.345z" fill="url(#h)" transform="matrix(1 0 0 -1 33.834 303.014)"/></g><g filter="url(#c)"><path d="m22.986 303.908h118.345v1.184h-118.345z" fill="url(#j)"/></g><g filter="url(#d)"><path d="m0 0h118.345v1.184h-118.345z" fill="url(#k)" transform="matrix(-1 0 0 1 162.041 303.908)"/></g><g filter="url(#e)" opacity=".05"><rect fill="#000" height="34.923" rx="17.461" width="117.359" x="33.834" y="282.303"/></g><g filter="url(#a)"><path clip-rule="evenodd" d="m164.231 116.912v166.036c0 11.627-9.425 21.052-21.052 21.052h-99.358c-11.627 0-21.052-9.425-21.052-21.052v-159.391h-.769v-20.447h.769v-5.623h-.769v-20.447h.769v-9.712h-.769v-10.479h.769v-17.797c0-11.627 9.425-21.052 21.051-21.052h99.358c11.627 0 21.052 9.425 21.052 21.052v45.145h.77v32.715z" fill="url(#l)" fill-rule="evenodd"/></g><g filter="url(#g)"><rect fill="#000" fill-opacity=".01" height="2.3" rx="1.15" width="17.17" x="85.117" y="27.862"/></g></g></svg>

<svg viewBox="0 0 189 334" fill="none" xmlns="http://www.w3.org/2000/svg"><mask id="a" maskUnits="userSpaceOnUse" x="0" y="0" width="189" height="334"><path fill-rule="evenodd" clip-rule="evenodd" d="M189 0H0v334h189V0zM58.174 29.343V26H44.199C36.909 26 31 31.872 31 39.114v243.772C31 290.129 36.91 296 44.199 296H142.8c7.29 0 13.199-5.871 13.199-13.114V39.114C156 31.872 150.091 26 142.801 26H128.05v3.343c0 3.55-2.897 6.428-6.47 6.428H64.644c-3.573 0-6.47-2.878-6.47-6.428z" fill="#fff"/></mask><g filter="url(#filter0_d)" mask="url(#a)"><g opacity=".8" filter="url(#filter1_f)"><path transform="matrix(1 0 0 -1 33.834 303.014)" fill="url(#paint0_linear)" d="M0 0h118.345v2.959H0z"/></g><g filter="url(#filter2_f)"><path fill="url(#paint1_linear)" d="M22.986 303.908h118.345v1.184H22.986z"/></g><g filter="url(#filter3_f)"><path transform="matrix(-1 0 0 1 162.041 303.908)" fill="url(#paint2_linear)" d="M0 0h118.345v1.184H0z"/></g><g opacity=".05" filter="url(#filter4_f)"><rect x="33.834" y="282.303" width="117.359" height="34.923" rx="17.461" fill="#000"/></g><g><g filter="url(#filter5_i)"><path fill-rule="evenodd" clip-rule="evenodd" d="M164.231 116.912v166.036c0 11.627-9.425 21.052-21.052 21.052H43.821c-11.627 0-21.052-9.425-21.052-21.052V123.557H22V103.11h.769v-5.623H22V77.04h.769v-9.712H22V56.849h.769V39.052C22.769 27.425 32.194 18 43.82 18h99.358c11.627 0 21.052 9.425 21.052 21.052v45.145H165v32.715h-.769z" fill="url(#paint3_linear)"/></g><g filter="url(#filter6_i)"><rect x="85.117" y="27.862" width="17.17" height="2.3" rx="1.15" fill="#000" fill-opacity=".01"/></g></g></g><defs><filter id="filter5_i" x="22" y="15" width="143" height="289" filterUnits="userSpaceOnUse" color-interpolation-filters="sRGB"><feFlood flood-opacity="0" result="BackgroundImageFix"/><feBlend in="SourceGraphic" in2="BackgroundImageFix" result="shape"/><feColorMatrix in="SourceAlpha" values="0 0 0 0 0 0 0 0 0 0 0 0 0 0 0 0 0 0 127 0" result="hardAlpha"/><feOffset dy="-3"/><feGaussianBlur stdDeviation="6"/><feComposite in2="hardAlpha" operator="arithmetic" k2="-1" k3="1"/><feColorMatrix values="0 0 0 0 0.464366 0 0 0 0 0.519284 0 0 0 0 0.587931 0 0 0 0.28626 0"/><feBlend in2="shape" result="effect1_innerShadow"/></filter><filter id="filter0_d" x="0" y="-8" width="187" height="343.226" filterUnits="userSpaceOnUse" color-interpolation-filters="sRGB"><feFlood flood-opacity="0" result="BackgroundImageFix"/><feColorMatrix in="SourceAlpha" values="0 0 0 0 0 0 0 0 0 0 0 0 0 0 0 0 0 0 127 0"/><feOffset dy="-4"/><feGaussianBlur stdDeviation="11"/><feColorMatrix values="0 0 0 0 0 0 0 0 0 0 0 0 0 0 0 0 0 0 0.03 0"/><feBlend in2="BackgroundImageFix" result="effect1_dropShadow"/><feBlend in="SourceGraphic" in2="effect1_dropShadow" result="shape"/></filter><filter id="filter2_f" x="16.191" y="297.113" width="131.936" height="14.775" filterUnits="userSpaceOnUse" color-interpolation-filters="sRGB"><feFlood flood-opacity="0" result="BackgroundImageFix"/><feBlend in="SourceGraphic" in2="BackgroundImageFix" result="shape"/><feGaussianBlur stdDeviation="3.398" result="effect1_foregroundBlur"/></filter><filter id="filter3_f" x="36.901" y="297.113" width="131.936" height="14.775" filterUnits="userSpaceOnUse" color-interpolation-filters="sRGB"><feFlood flood-opacity="0" result="BackgroundImageFix"/><feBlend in="SourceGraphic" in2="BackgroundImageFix" result="shape"/><feGaussianBlur stdDeviation="3.398" result="effect1_foregroundBlur"/></filter><filter id="filter4_f" x="17.525" y="265.994" width="149.978" height="67.542" filterUnits="userSpaceOnUse" color-interpolation-filters="sRGB"><feFlood flood-opacity="0" result="BackgroundImageFix"/><feBlend in="SourceGraphic" in2="BackgroundImageFix" result="shape"/><feGaussianBlur stdDeviation="8.155" result="effect1_foregroundBlur"/></filter><filter id="filter1_f" x="27.039" y="293.26" width="131.936" height="16.549" filterUnits="userSpaceOnUse" color-interpolation-filters="sRGB"><feFlood flood-opacity="0" result="BackgroundImageFix"/><feBlend in="SourceGraphic" in2="BackgroundImageFix" result="shape"/><feGaussianBlur stdDeviation="3.398" result="effect1_foregroundBlur"/></filter><filter id="filter6_i" x="85.117" y="27.862" width="17.17" height="2.3" filterUnits="userSpaceOnUse" color-interpolation-filters="sRGB"><feFlood flood-opacity="0" result="BackgroundImageFix"/><feBlend in="SourceGraphic" in2="BackgroundImageFix" result="shape"/><feColorMatrix in="SourceAlpha" values="0 0 0 0 0 0 0 0 0 0 0 0 0 0 0 0 0 0 127 0" result="hardAlpha"/><feOffset/><feGaussianBlur stdDeviation=".5"/><feComposite in2="hardAlpha" operator="arithmetic" k2="-1" k3="1"/><feColorMatrix values="0 0 0 0 0.464366 0 0 0 0 0.519284 0 0 0 0 0.587931 0 0 0 0.28626 0"/><feBlend in2="shape" result="effect1_innerShadow"/></filter><linearGradient id="paint0_linear" x1="115.655" y1=".034" x2="0" y2=".034" gradientUnits="userSpaceOnUse"><stop stop-opacity=".01"/><stop offset=".142"/><stop offset=".491"/><stop offset=".853"/><stop offset="1" stop-opacity=".01"/></linearGradient><linearGradient id="paint1_linear" x1="138.641" y1="303.922" x2="22.986" y2="303.922" gradientUnits="userSpaceOnUse"><stop stop-color="#fff" stop-opacity=".01"/><stop offset=".853"/><stop offset="1" stop-opacity=".01"/></linearGradient><linearGradient id="paint2_linear" x1="115.655" y1=".013" x2="0" y2=".013" gradientUnits="userSpaceOnUse"><stop stop-color="#fff" stop-opacity=".01"/><stop offset=".853"/><stop offset="1" stop-opacity=".01"/></linearGradient><linearGradient id="paint3_linear" x1="-2.137" y1="43.25" x2="90.227" y2="300.721" gradientUnits="userSpaceOnUse"><stop stop-color="#F4F7FA"/><stop offset="1" stop-color="#ECEEF1"/></linearGradient></defs></svg>
